X:1
T:G Major Samuel Holyoke, 1791
T:Isaac Watts, 1720 (Hymn 27, Book 3)     86. 86. (C. M.) 
T:Fernay Transcribed from Harmonia Americana, 1791.
%%score [ 1 2 3 ]
L:1/8
Q:1/4=100
M:2/4
K:G
V:1 treble nm="Treble" snm="Tr."
V:2 treble-8 nm="Tenor" snm="T."
V:3 bass nm="Bass" snm="B."
V:1
"^1. Glo–ry  to   God   the  Fa  –  ther's  name,  Who from our     sin   –  ful     race            Chose out his favorites    to       pro –" B2 AG | %1
 d3 B | ed cB |{!fermata!B} !fermata!A2 A2 | BG dB | ec BA | B4 | z2 AB | c2 B2 | A2 AB | cB AG | %11
"^1. – claim   The  ho  –  nors     of  his grace.  Glory     to    God   the Son be paid,  Who dwelt in humble clay;       And,  to       re   –"{G} F3 D | %12
 GB cA | G2 F2 | G4 | d2 dc | B3 A | B2 ^c2 | !fermata!d2 A2 | B2 d2 | G2 A2 | B4 | z2 B2 | BG dB | %24
"^1. –deem  us         from      the      dead,    Gave           his          own        life        a    –    way." BG dB | %25
 ce dc | !fermata!B2 AB/c/ | Be dc | BA GF | G4 |] %30
V:2
"^2. Glo–ry  to    God  the  Spi  –   rit        give,  From whose al – migh – ty   power        Our  souls  their heav'nly birth de –" d2 cB | %1
 A3 G | cB AG |{!fermata!G} !fermata!F2 d2 | dB Bd | cA GF | G4 | z2 FG | A2 G2 | F2 FG | AG cB | %11
"^2.  –rive,   And  bless  the        happy  hour.  Glo–ry  to  God  that  reigns above,  Th'e–ter–nal Three in One,     Who  by      the"{B} A3 A | %12
 Bd ec | B2 A2 | B4 | B2 BA | G3 d | d2 G2 | !fermata!F2 D2 | G2 B2 | E2 F2 | G4 | z2 G2 | GD BG | %24
"^2.  won – ders       of            his          love    Has             made   his           na    –   ture   known." GD BG | %25
 Ac BA | !fermata!G2 FG/A/ | Gc Bg | dc BA | B4 |] %30
V:3
 G,2 F,G, | D,3 E, | C,2 C,2 | !fermata!D,2 D,2 | B,,2 G,,2 | C,2 D,2 | G,4- | G,2 D,2 | D,2 D,2 | %9
 D,2 D,2 | D,2 D,2 | D,3 F, | G,2 C,2 | D,2 [D,,D,]2 | G,,4 | G,,2 B,,D, | G,3 F, | G,2 E,2 | %18
 !fermata!D,2 F,2 | G,2 B,,2 | C,2 A,,2 | G,,4 | z2 G,2 | G,2 G,,2 | G,2 G,,2 | C,2 D,2 | %26
 !fermata!G,2 D,2 | G,2 B,,2 | C,2 D,2 | [G,,G,]4 |] %30

